svgs/sharp-regular/table-cells-large.svg

<svg xmlns="http://www.w3.org/2000/svg" viewBox="0 0 512 512"><!--! Font Awesome Pro 6.6.0 by @fontawesome - https://fontawesome.com License - https://fontawesome.com/license (Commercial License) Copyright 2024 Fonticons, Inc. --><path d="M280 80l0 152 184 0 0-152L280 80zm-48 0L48 80l0 152 184 0 0-152zM48 280l0 152 184 0 0-152L48 280zM280 432l184 0 0-152-184 0 0 152zM0 32l48 0 416 0 48 0 0 48 0 352 0 48-48 0L48 480 0 480l0-48L0 80 0 32z"/></svg>

<svg xmlns="http://www.w3.org/2000/svg" viewBox="0 0 512 512"><!--! Font Awesome Pro 6.4.0 by @fontawesome - https://fontawesome.com License - https://fontawesome.com/license (Commercial License) Copyright 2023 Fonticons, Inc. --><path d="M280 80V232H464V80H280zm-48 0H48V232H232V80zM48 280V432H232V280H48zM280 432H464V280H280V432zM0 32H48 464h48V80 432v48H464 48 0V432 80 32z"/></svg>
